X:1
T:Minisnoa
R:Snoa
O:Jämtland?
C: Lars Wikfors
N: Okänt om LW har komponerat låten, eller om den är efter honom.
M:2/4
L:1/8
K:A
|: AB cd | e/e/e/e/ ec | d/d/d/d/ dB | c/c/c/c/ cB |
 AB cd | e/e/e/e/ ec | d/d/d/d/ dB | AA A2:|
|: aa ff | ee cc | dd BB | ee cc|
 aa ff | ee cc | dd BB | AA A2 :|

